X: 1
T: Hey To The Camp
M: 6/8
L: 1/8
R: Jig
S: William Vickers MS (1770)
Z: Dow
K: Cmaj
cec dBG|AcE D2C|EGG G2G|cec d2d|
cec dBG|AcE D2C|EGG egf|e2d c3:|
|:ege gec|faf afd|ege gec|B/c/dB G2G|
ege gec|faf afd|edc BAB|cGE C3:|
